src/standard/shapes/restrooms.svg

<svg xmlns="http://www.w3.org/2000/svg" viewBox="0 0 36 36">
  <path d="M31 17.38H8a.62.62 0 0 0-.62.62v4a.62.62 0 0 0 .62.62h2.38V31a.62.62 0 0 0 .62.62h13a.62.62 0 0 0 .62-.62v-5.41a7.62 7.62 0 0 0 7-7.59.62.62 0 0 0-.62-.62Zm-19.38 13V22a.62.62 0 0 0-.62-.62H8.63v-2.76h7.78a7.62 7.62 0 0 0 7 7v4.79Zm12.38-6a6.38 6.38 0 0 1-6.34-5.76h12.68A6.38 6.38 0 0 1 24 24.38Zm-7-7.76h14a.62.62 0 0 0 0-1.24H17a.62.62 0 0 0 0 1.24ZM14.62 16V5a.62.62 0 0 0-.62-.62H5a.62.62 0 0 0-.62.62v11a.62.62 0 0 0 .62.62h9a.62.62 0 0 0 .62-.62Zm-1.24-.62H5.62V5.62h7.76Z"/>
</svg>

<svg id="e8e5c7d6-ecd9-42f4-9fdf-d908c96acbfb" data-name="Icon" xmlns="http://www.w3.org/2000/svg" viewBox="0 0 36 36">
  <g>
    <path d="M31,17.38H8a.62.62,0,0,0-.62.62v4a.62.62,0,0,0,.62.62h2.38V31a.62.62,0,0,0,.62.62H24a.62.62,0,0,0,.62-.62V25.59a7.62,7.62,0,0,0,7-7.59A.62.62,0,0,0,31,17.38Zm-19.38,13V22a.62.62,0,0,0-.62-.62H8.63V18.62h7.78a7.62,7.62,0,0,0,7,7v4.79Zm12.38-6a6.38,6.38,0,0,1-6.34-5.76H30.34A6.38,6.38,0,0,1,24,24.38Z"/>
    <path d="M17,16.62H31a.62.62,0,0,0,0-1.24H17A.62.62,0,0,0,17,16.62Z"/>
    <path d="M14.62,16V5A.62.62,0,0,0,14,4.38H5A.62.62,0,0,0,4.38,5V16a.62.62,0,0,0,.62.62h9A.62.62,0,0,0,14.62,16Zm-1.24-.62H5.62V5.62h7.76Z"/>
  </g>
</svg>
